X:18
T:Mrs. Stewart's Strathspey - of Inverugie
R:strathspey
C:William Marshall
S:1822 Collection p35
B:Athole
Z:Paul Stewart Cranford (P.S.C.), <http://www.cranfordpub.com>
M:C
L:1/8
Q:244
K:D
D<DF>D d/c/B/A/ F2|BEEF G>AB<d|D<DF>A d/c/B/A/ FD|Adce dDdf:|
||d>AF>A d/c/B/A/ d2|e<E E>F G>ABc|d>AF>A d/e/f/g/ ag|fdAG FDFA|
d>AF>A d/c/B/A/ d2|e>EE>F G>AB>c|dfec dBAF|GBAc dDdf|]

